src/assets/img/tile1.svg

<?xml version="1.0" encoding="UTF-8"?>
<svg fill="none" viewBox="0 0 106 96" xmlns="http://www.w3.org/2000/svg">
<path d="m56.056 3.2798c9.8784-1.2445 23.634-5.8049 32.833-1.4062 9.5598 4.5711 10.361 12.344 13.857 23.731 3.582 11.668 4.266 24.186 1.758 36.233-2.661 12.787-10.259 11.09-19.284 18.922-9.0637 7.8657-22.507 16.679-37.833 15.043-26.933-2.8746-57.056-41.044-44.414-70.197 4.9513-11.418 14.331-18.936 28.109-22.325 13.348-1.1651 16.659 1.0476 24.974 0z" clip-rule="evenodd" fill="url(#a)" fill-rule="evenodd"/>
<path d="m74.084 56.669c0.2947-1.5694 0.2871-3.181-0.0222-4.7476l4.2492-10.289c4e-4 -0.0068 4e-4 -0.0137 0-0.0205 0.6886-1.8916 1.6977-3.6495 2.9828-5.1963 0.3198-0.3389 0.4484-0.8164 0.3424-1.2707l-1.7424-7.5497c-0.0207-0.0789-0.052-0.1547-0.0928-0.2253-0.0074-0.014-0.0102-0.0307-0.0176-0.0437-0.0074-0.0131-0.0399-0.0447-0.0585-0.0689-0.0379-0.0558-0.0818-0.1073-0.1308-0.1536-0.0323-0.0228-0.066-0.0433-0.1011-0.0615-0.0453-0.0334-0.0934-0.0627-0.1438-0.0875-0.07-0.0265-0.1429-0.0443-0.2171-0.053-0.0214 0-0.0399-0.014-0.0613-0.0159-0.1778-0.0119-0.3553 0.0279-0.5112 0.1145-0.0139 0.0075-0.0306 0.0103-0.0445 0.0187h-0.0093l-6.551 4.1025c-0.3967 0.2465-0.643 0.6769-0.655 1.145-0.182 2.01-0.7097 3.9731-1.5596 5.8024v0.0102l-2.1237 5.1507c-1.0423-0.556-2.1582-0.9603-3.314-1.2009 0.4375-3.0301 0.5984-6.0941 0.4806-9.1536 1.727-2.0791 2.5559-4.7638 2.3027-7.4584-0.5799-5.4254-5.4665-9.3436-5.6752-9.5083-0.3138-0.2479-0.7504-0.2666-1.084-0.0463-0.3336 0.2202-0.4893 0.63-0.3866 1.0172 0.4779 1.8004 0.0641 3.7004-3.4652 7.6074-1.5857 1.5363-2.0883 3.882-1.272 5.9364 0.3121 0.7858 0.7593 1.5105 1.3212 2.1411-0.2246 1.4382-0.4008 2.8002-0.5224 4.1267-0.2092 2.1941-0.2632 4.4003-0.1614 6.602-0.8277 0.4503-1.6026 0.992-2.3102 1.6151l-4.4997-19.307c0-0.0196-0.0186-0.0335-0.0241-0.0512-0.0151-0.0621-0.0369-0.1223-0.065-0.1797l-4.5962-8.5169c-0.46-0.8524-1.4317-1.2905-2.3724-1.0694-0.9406 0.221-1.6174 1.0465-1.6523 2.0152l-0.3488 9.6768c2e-4 0.0699 8e-3 0.1395 0.0232 0.2076v0.0419l4.5906 19.658c-0.7242 0.0321-1.443 0.1397-2.145 0.3212l-5.0499-12.237c-0.4049-0.9354-1.4789-1.3768-2.4215-0.9952l-7.7182 3.2061c-0.9446 0.3956-1.3935 1.4824-1.0048 2.4325l6.8489 16.578c-4.0141 0.2115-7.1298 3.5924-7.0262 7.6242s3.3889 7.2472 7.4084 7.2508h40.822c2.6517-0.0386 5.0815-1.4937 6.374-3.8172 1.2926-2.3234 1.2515-5.1623-0.1076-7.4472-1.3592-2.2849-3.83-3.6687-6.4817-3.6302zm-0.9454-24.096 3.8893-2.4353-1.3768 3.3364c-0.1963 0.4751 0.0284 1.0198 0.5019 1.2167 0.4734 0.1969 1.0163-0.0286 1.2126-0.5036l1.3768-3.3364 1.0308 4.4805c-1.1029 1.3499-2.0088 2.8504-2.6906 4.4562-0.9673 0.4499-2.078 0.4733-3.0632 0.0644-0.9853-0.4088-1.7551-1.2126-2.1231-2.2166 0.6516-1.6197 1.0699-3.3242 1.2423-5.0623zm-2.1339 7.3086c0.6138 0.7529 1.4103 1.3347 2.313 1.6896 0.7175 0.3096 1.4892 0.4729 2.2703 0.4803 0.1879-7e-4 0.3756-0.0122 0.5622-0.0344l-2.9605 7.168c-0.8865-1.9612-2.2579-3.6624-3.9839-4.9422l1.7989-4.3613zm-12.71-6.6486 4.6611 0.2858c0.0288 0.8695 0.0186 1.7687-0.0102 2.6819-1.5528 0.1114-3.1133 0.0357-4.6481-0.2252-0.1169-0.0168-0.2311-0.0298-0.347-0.0456 0.0927-0.877 0.2059-1.7651 0.3423-2.6969h0.0019zm-0.4426-7.4966c2.4633-2.7266 3.7399-4.824 4.0368-6.7956 1.7706 1.8278 2.9393 4.157 3.3483 6.6727 0.1949 2.1901-0.48 4.3687-1.8778 6.0621-1.8327-0.1117-3.6452-0.2234-5.4377-0.3351-0.7702-0.7225-1.2133-1.729-1.2267-2.7868-0.0135-1.0578 0.4037-2.0753 1.1553-2.8173h0.0018zm-0.0705 12.049 0.2691 0.0353c1.1955 0.1855 2.4023 0.2885 3.6118 0.3082 0.3841 0 0.7886-0.0308 1.1941-0.0624-0.0845 1.1981-0.2227 2.4492-0.3981 3.7422-0.2291-0.0121-0.4536-0.0344-0.6837-0.0344-1.4008 0.0025-2.791 0.2427-4.1119 0.7103-0.0428-1.5674-0.0038-3.136 0.1169-4.6992h0.0018zm-7.1764 10.886-2.6543-11.345c-0.1241-0.4922-0.6184-0.7938-1.111-0.6781-0.4927 0.1158-0.8021 0.6063-0.6954 1.1026l2.3853 10.211c-0.6558-0.2354-1.3333-0.4047-2.0226-0.5055l-4.072-17.436c0.5705 0.2606 1.1898 0.3959 1.8166 0.3966 0.0585 0 0.1206-0.0084 0.18-0.0112l0.6559 2.8105c0.0707 0.3289 0.3128 0.594 0.6333 0.6932 0.3205 0.0993 0.6694 0.0173 0.9126-0.2144s0.3428-0.5771 0.2605-0.9033l-0.6568-2.8123c0.6294-0.2796 1.1846-0.7037 1.6208-1.2381l4.1397 17.761c-0.5376 0.6728-1.0042 1.3997-1.3926 2.169zm-5.6687-20.201c-1.1865 0.2309-2.398-0.2559-3.0978-1.2446l0.1178-3.2787c0.3228 0.0605 0.6504 0.0916 0.9788 0.0931 0.3172 0.0013 0.6335-0.034 0.9426-0.1052 0.6259-0.1649 1.2114-0.4571 1.7201-0.8583l1.5624 2.8933c-0.1862 1.2004-1.0565 2.1797-2.2239 2.5022v-0.0018zm-2.5412-10.875c0.1264-0.0294 0.2568 0.0292 0.3192 0.1434l1.9891 3.691c-0.3588 0.3257-0.7873 0.5646-1.2525 0.6982-0.4754 0.0876-0.9646 0.0643-1.4297-0.068l0.1513-4.1946c5e-3 -0.1301 0.0962-0.2407 0.2226-0.27zm-6.7143 18.593 0.7088 1.7185-3.4328 1.4262c-0.4069 0.1714-0.6371 0.6068-0.5504 1.0411 0.0866 0.4342 0.4662 0.7471 0.9076 0.7481 0.1219-3e-4 0.2426-0.0243 0.3554-0.0708l3.4328-1.4271 0.7097 1.7204-1.7173 0.714c-0.4093 0.1699-0.6418 0.6065-0.5551 1.0423 0.0867 0.4359 0.4684 0.7494 0.9114 0.7487 0.1215-4e-4 0.2419-0.0244 0.3544-0.0707l1.7173-0.714 0.7097 1.7203-3.4355 1.4289c-0.4093 0.17-0.6418 0.6065-0.5551 1.0424s0.4684 0.7494 0.9113 0.7487c0.1216-3e-4 0.242-0.0244 0.3544-0.0707l3.4328-1.4262 0.7506 1.8181c-3.0233 1.3846-5.2402 4.092-6.0074 7.3365l-6.7245-16.269 7.7219-3.2061zm38.619 33.513h-40.822c-3.0744 0-5.5667-2.5007-5.5667-5.5855 0-3.0847 2.4923-5.5854 5.5667-5.5854 0.5376-0.0018 1.0725 0.076 1.5874 0.2308 0.2782 0.0843 0.5797 0.033 0.8146-0.1387s0.376-0.4439 0.3814-0.7354c0.066-3.3177 1.9774-6.3191 4.9502-7.7731 2.9729-1.4539 6.5067-1.1157 9.152 0.876 0.2337 0.1746 0.5357 0.2288 0.8153 0.1465 0.2796-0.0824 0.5044-0.2918 0.607-0.5654 1.8126-4.8471 6.8223-7.6982 11.899-6.7718 5.0764 0.9264 8.7647 5.3649 8.7602 10.542 0.0018 1.0646-0.1561 2.1234-0.4685 3.1409-0.0975 0.3165-0.02 0.6612 0.2036 0.9051 0.2235 0.2438 0.5594 0.3501 0.8819 0.279 0.4068-0.0899 0.8221-0.1354 1.2386-0.1359 3.0744 0 5.5667 2.5007 5.5667 5.5854 0 3.0848-2.4923 5.5855-5.5667 5.5855z" fill="#fff"/>
<path d="m61.946 30.325c0.2912 0.0011 0.5661-0.135 0.7423-0.3677 1.1582-1.573 1.6059-3.5614 1.2339-5.4812-0.0791-0.3282-0.3292-0.5878-0.6536-0.6781-0.3243-0.0904-0.672 0.0026-0.9084 0.243-0.2365 0.2403-0.3247 0.5903-0.2305 0.9145 0.2222 1.3642-0.1093 2.7609-0.9203 3.8782-0.2109 0.2821-0.2448 0.6595-0.0876 0.9749 0.1571 0.3153 0.4784 0.5146 0.8298 0.5146l-0.0056 0.0018z" fill="#fff"/>
<path d="m60.725 58.531c-0.69 0.0021-1.3704 0.1612-1.9901 0.4654-1.669-2.2915-4.7854-2.9628-7.2447-1.5605-2.4593 1.4022-3.4795 4.4321-2.3718 7.0436 0.1458 0.3432 0.4817 0.566 0.8536 0.566 0.125 3e-4 0.2488-0.0251 0.3637-0.0745 0.2264-0.0968 0.4052-0.2798 0.497-0.5089 0.0919-0.229 0.0893-0.4853-0.0071-0.7125-0.202-0.4723-0.3062-0.981-0.3062-1.495 0-2.0565 1.6615-3.7236 3.7111-3.7236 1.4395-0.0072 2.7505 0.8297 3.3539 2.141 0.0201 0.0304 0.0418 0.0596 0.065 0.0876 0.0146 0.0319 0.031 0.063 0.0491 0.093 0.0167 0.0205 0.0409 0.0298 0.0594 0.0494 0.0435 0.0453 0.0917 0.0859 0.1438 0.121 0.0464 0.0358 0.0961 0.067 0.1485 0.0931 0.0539 0.0227 0.1098 0.0401 0.167 0.0521 0.057 0.0151 0.1155 0.0241 0.1744 0.027 0.1205-1e-3 0.2401-0.0211 0.3544-0.0596 0.0247-0.0045 0.0492-0.0104 0.0733-0.0176 0.0301-0.0196 0.0589-0.041 0.0863-0.0643 0.0334-0.0149 0.0659-0.0317 0.0974-0.0502 0.4873-0.3955 1.0952-0.6111 1.722-0.6107 1.0848 0.0017 2.0697 0.6358 2.5235 1.6244 0.2127 0.4679 0.763 0.6742 1.2293 0.4608 0.4663-0.2133 0.6719-0.7656 0.4593-1.2334-0.7555-1.6523-2.4005-2.712-4.2121-2.7136z" fill="#fff"/>
<path d="m42.461 52.062c-0.14 0.0456-3.4179 1.1832-3.4179 4.6071 0 0.5141 0.4154 0.9309 0.9278 0.9309s0.9278-0.4168 0.9278-0.9309c0.0757-1.2986 0.9273-2.4221 2.1543-2.8421 0.4868-0.164 0.7489-0.6929 0.5854-1.1813s-0.6906-0.7514-1.1774-0.5874v0.0037z" fill="#fff"/>
<path d="m55.518 51.056c0.0737 0.0188 0.1495 0.0282 0.2255 0.028 0.4252-5e-4 0.7957-0.2909 0.899-0.7047 0.427-1.7384 1.9607-2.9749 3.7445-3.019 0.5124-0.0013 0.9267-0.4191 0.9255-0.9332-0.0013-0.5141-0.4177-0.9299-0.9301-0.9286-2.6371 0.0351-4.9159 1.8571-5.5389 4.4283-0.1245 0.4987 0.1775 1.0043 0.6745 1.1292z" fill="#fff"/>
<defs>
<linearGradient id="a" x1="2.2819" x2="104.08" y1="10.082" y2="11.95" gradientUnits="userSpaceOnUse">
<stop stop-color="#255D8B" offset="0"/>
<stop stop-color="#3A80BA" offset="1"/>
</linearGradient>
</defs>
</svg>

<svg width="106" height="96" viewBox="0 0 106 96" fill="none" xmlns="http://www.w3.org/2000/svg">
<path fill-rule="evenodd" clip-rule="evenodd" d="M56.0558 3.27984C65.9342 2.03532 79.6894 -2.52504 88.8887 1.87365C98.4485 6.44475 99.2501 14.2177 102.746 25.6048C106.328 37.2732 107.012 49.7904 104.504 61.8378C101.843 74.6245 94.2446 72.9275 85.22 80.7593C76.1563 88.625 62.7132 97.4379 47.3866 95.8021C20.4536 92.9275 -9.66955 54.7583 2.97238 25.6048C7.92371 14.1866 17.3033 6.66872 31.0815 3.27984C44.429 2.11474 47.7409 4.32739 56.0558 3.27984Z" fill="url(#paint0_linear)"/>
<path d="M74.0835 56.6694C74.3782 55.1 74.3706 53.4884 74.0613 51.9218L78.3105 41.6325C78.3109 41.6257 78.3109 41.6188 78.3105 41.612C78.9991 39.7204 80.0082 37.9625 81.2933 36.4157C81.6131 36.0768 81.7417 35.5993 81.6357 35.145L79.8933 27.5953C79.8726 27.5164 79.8413 27.4406 79.8005 27.37C79.7931 27.356 79.7903 27.3393 79.7829 27.3263C79.7755 27.3132 79.743 27.2816 79.7244 27.2574C79.6865 27.2016 79.6426 27.1501 79.5936 27.1038C79.5613 27.081 79.5276 27.0605 79.4925 27.0423C79.4472 27.0089 79.3991 26.9796 79.3487 26.9548C79.2787 26.9283 79.2058 26.9105 79.1316 26.9018C79.1102 26.9018 79.0917 26.8878 79.0703 26.8859C78.8925 26.874 78.715 26.9138 78.5591 27.0004C78.5452 27.0079 78.5285 27.0107 78.5146 27.0191H78.5053L71.9543 31.1216C71.5576 31.3681 71.3113 31.7985 71.2993 32.2666C71.1173 34.2766 70.5896 36.2397 69.7397 38.069V38.0792L67.616 43.2299C66.5737 42.6739 65.4578 42.2696 64.302 42.029C64.7395 38.9989 64.9004 35.9349 64.7826 32.8754C66.5096 30.7963 67.3385 28.1116 67.0853 25.417C66.5054 19.9916 61.6188 16.0734 61.4101 15.9087C61.0963 15.6608 60.6597 15.6421 60.3261 15.8624C59.9925 16.0826 59.8368 16.4924 59.9395 16.8796C60.4174 18.68 60.0036 20.58 56.4743 24.487C54.8886 26.0233 54.386 28.369 55.2023 30.4234C55.5144 31.2092 55.9616 31.9339 56.5235 32.5645C56.2989 34.0027 56.1227 35.3647 56.0011 36.6912C55.7919 38.8853 55.7379 41.0915 55.8397 43.2932C55.012 43.7435 54.2371 44.2852 53.5295 44.9083L49.0298 25.6013C49.0298 25.5817 49.0112 25.5678 49.0057 25.5501C48.9906 25.488 48.9688 25.4278 48.9407 25.3704L44.3445 16.8535C43.8845 16.0011 42.9128 15.563 41.9721 15.7841C41.0315 16.0051 40.3547 16.8306 40.3198 17.7993L39.971 27.4761C39.9712 27.546 39.979 27.6156 39.9942 27.6837C39.9942 27.6986 39.9942 27.7117 39.9942 27.7256L44.5848 47.3836C43.8606 47.4157 43.1418 47.5233 42.4398 47.7048L37.3899 35.468C36.985 34.5326 35.911 34.0912 34.9684 34.4728L27.2502 37.6789C26.3056 38.0745 25.8567 39.1613 26.2454 40.1114L33.0943 56.689C29.0802 56.9005 25.9645 60.2814 26.0681 64.3132C26.1717 68.345 29.457 71.5604 33.4765 71.564H74.2988C76.9505 71.5254 79.3803 70.0703 80.6728 67.7468C81.9654 65.4234 81.9243 62.5845 80.5652 60.2996C79.206 58.0147 76.7352 56.6309 74.0835 56.6694ZM73.1381 32.5738L77.0274 30.1385L75.6506 33.4749C75.4543 33.95 75.679 34.4947 76.1525 34.6916C76.6259 34.8885 77.1688 34.663 77.3651 34.188L78.7419 30.8516L79.7727 35.3321C78.6698 36.682 77.7639 38.1825 77.0821 39.7883C76.1148 40.2382 75.0041 40.2616 74.0189 39.8527C73.0336 39.4439 72.2638 38.6401 71.8958 37.6361C72.5474 36.0164 72.9657 34.3119 73.1381 32.5738ZM71.0042 39.8824C71.618 40.6353 72.4145 41.2171 73.3172 41.572C74.0347 41.8816 74.8064 42.0449 75.5875 42.0523C75.7754 42.0516 75.9631 42.0401 76.1497 42.0179L73.1892 49.1859C72.3027 47.2247 70.9313 45.5235 69.2053 44.2437L71.0042 39.8824ZM58.2937 33.2338L62.9548 33.5196C62.9836 34.3891 62.9734 35.2883 62.9446 36.2015C61.3918 36.3129 59.8313 36.2372 58.2965 35.9763C58.1796 35.9595 58.0654 35.9465 57.9495 35.9307C58.0422 35.0537 58.1554 34.1656 58.2918 33.2338H58.2937ZM57.8511 25.7372C60.3144 23.0106 61.591 20.9132 61.8879 18.9416C63.6585 20.7694 64.8272 23.0986 65.2362 25.6143C65.4311 27.8044 64.7562 29.983 63.3584 31.6764C61.5257 31.5647 59.7132 31.453 57.9207 31.3413C57.1505 30.6188 56.7074 29.6123 56.694 28.5545C56.6805 27.4967 57.0977 26.4792 57.8493 25.7372H57.8511ZM57.7806 37.786L58.0497 37.8213C59.2452 38.0068 60.452 38.1098 61.6615 38.1295C62.0456 38.1295 62.4501 38.0987 62.8556 38.0671C62.7711 39.2652 62.6329 40.5163 62.4575 41.8093C62.2284 41.7972 62.0039 41.7749 61.7738 41.7749C60.373 41.7774 58.9828 42.0176 57.6619 42.4852C57.6191 40.9178 57.6581 39.3492 57.7788 37.786H57.7806ZM50.6042 48.672L47.9499 37.327C47.8258 36.8348 47.3315 36.5332 46.8389 36.6489C46.3462 36.7647 46.0368 37.2552 46.1435 37.7515L48.5288 47.9627C47.873 47.7273 47.1955 47.558 46.5062 47.4572L42.4342 30.0212C43.0047 30.2818 43.624 30.4171 44.2508 30.4178C44.3093 30.4178 44.3714 30.4094 44.4308 30.4066L45.0867 33.2171C45.1574 33.546 45.3995 33.8111 45.72 33.9103C46.0405 34.0096 46.3894 33.9276 46.6326 33.6959C46.8758 33.4642 46.9754 33.1188 46.8931 32.7926L46.2363 29.9803C46.8657 29.7007 47.4209 29.2766 47.8571 28.7422L51.9968 46.503C51.4592 47.1758 50.9926 47.9027 50.6042 48.672ZM44.9355 28.4713C43.749 28.7022 42.5375 28.2154 41.8377 27.2267L41.9555 23.948C42.2783 24.0085 42.6059 24.0396 42.9343 24.0411C43.2515 24.0424 43.5678 24.0071 43.8769 23.9359C44.5028 23.771 45.0883 23.4788 45.597 23.0776L47.1594 25.9709C46.9732 27.1713 46.1029 28.1506 44.9355 28.4731V28.4713ZM42.3943 17.5964C42.5207 17.567 42.6511 17.6256 42.7135 17.7398L44.7026 21.4308C44.3438 21.7565 43.9153 21.9954 43.4501 22.129C42.9747 22.2166 42.4855 22.1933 42.0204 22.061L42.1717 17.8664C42.1767 17.7363 42.2679 17.6257 42.3943 17.5964ZM35.68 36.1894L36.3888 37.9079L32.956 39.3341C32.5491 39.5055 32.3189 39.9409 32.4056 40.3752C32.4922 40.8094 32.8718 41.1223 33.3132 41.1233C33.4351 41.123 33.5558 41.099 33.6686 41.0525L37.1014 39.6254L37.8111 41.3458L36.0938 42.0598C35.6845 42.2297 35.452 42.6663 35.5387 43.1021C35.6254 43.538 36.0071 43.8515 36.4501 43.8508C36.5716 43.8504 36.692 43.8264 36.8045 43.7801L38.5218 43.0661L39.2315 44.7864L35.796 46.2153C35.3867 46.3853 35.1542 46.8218 35.2409 47.2577C35.3276 47.6936 35.7093 48.0071 36.1522 48.0064C36.2738 48.0061 36.3942 47.982 36.5066 47.9357L39.9394 46.5095L40.69 48.3276C37.6667 49.7122 35.4498 52.4196 34.6826 55.6641L27.9581 39.3955L35.68 36.1894ZM74.2988 69.7022H33.4765C30.4021 69.7022 27.9098 67.2015 27.9098 64.1167C27.9098 61.032 30.4021 58.5313 33.4765 58.5313C34.0141 58.5295 34.549 58.6073 35.0639 58.7621C35.3421 58.8464 35.6436 58.7951 35.8785 58.6234C36.1134 58.4517 36.2545 58.1795 36.2599 57.888C36.3259 54.5703 38.2373 51.5689 41.2101 50.1149C44.183 48.661 47.7168 48.9992 50.3621 50.9909C50.5958 51.1655 50.8978 51.2197 51.1774 51.1374C51.457 51.055 51.6818 50.8456 51.7844 50.572C53.597 45.7249 58.6067 42.8738 63.683 43.8002C68.7594 44.7266 72.4477 49.1651 72.4432 54.3422C72.445 55.4068 72.2871 56.4656 71.9747 57.4831C71.8772 57.7996 71.9547 58.1443 72.1783 58.3882C72.4018 58.632 72.7377 58.7383 73.0602 58.6672C73.467 58.5773 73.8823 58.5318 74.2988 58.5313C77.3732 58.5313 79.8655 61.032 79.8655 64.1167C79.8655 67.2015 77.3732 69.7022 74.2988 69.7022Z" fill="white"/>
<path d="M61.9455 30.3247C62.2367 30.3258 62.5116 30.1897 62.6878 29.957C63.846 28.384 64.2937 26.3956 63.9217 24.4758C63.8426 24.1476 63.5925 23.888 63.2681 23.7977C62.9438 23.7073 62.5961 23.8003 62.3597 24.0407C62.1232 24.281 62.035 24.631 62.1292 24.9552C62.3514 26.3194 62.0199 27.7161 61.2089 28.8334C60.998 29.1155 60.9641 29.4929 61.1213 29.8083C61.2784 30.1236 61.5997 30.3229 61.9511 30.3229L61.9455 30.3247Z" fill="white"/>
<path d="M60.7254 58.5313C60.0354 58.5334 59.355 58.6925 58.7353 58.9967C57.0663 56.7052 53.9499 56.0339 51.4906 57.4362C49.0313 58.8384 48.0111 61.8683 49.1188 64.4798C49.2646 64.823 49.6005 65.0458 49.9724 65.0458C50.0974 65.0461 50.2212 65.0207 50.3361 64.9713C50.5625 64.8745 50.7413 64.6915 50.8331 64.4624C50.925 64.2334 50.9224 63.9771 50.826 63.7499C50.624 63.2776 50.5198 62.7689 50.5198 62.2549C50.5198 60.1984 52.1813 58.5313 54.2309 58.5313C55.6704 58.5241 56.9814 59.361 57.5848 60.6723C57.6049 60.7027 57.6266 60.7319 57.6498 60.7599C57.6644 60.7918 57.6808 60.8229 57.6989 60.8529C57.7156 60.8734 57.7398 60.8827 57.7583 60.9023C57.8018 60.9476 57.85 60.9882 57.9021 61.0233C57.9485 61.0591 57.9982 61.0903 58.0506 61.1164C58.1045 61.1391 58.1604 61.1565 58.2176 61.1685C58.2746 61.1836 58.3331 61.1926 58.392 61.1955C58.5125 61.1945 58.6321 61.1744 58.7464 61.1359C58.7711 61.1314 58.7956 61.1255 58.8197 61.1183C58.8498 61.0987 58.8786 61.0773 58.906 61.054C58.9394 61.0391 58.9719 61.0223 59.0034 61.0038C59.4907 60.6083 60.0986 60.3927 60.7254 60.3931C61.8102 60.3948 62.7951 61.0289 63.2489 62.0175C63.4616 62.4854 64.0119 62.6917 64.4782 62.4783C64.9445 62.265 65.1501 61.7127 64.9375 61.2449C64.182 59.5926 62.537 58.5329 60.7254 58.5313Z" fill="white"/>
<path d="M42.4611 52.0624C42.3211 52.108 39.0432 53.2456 39.0432 56.6695C39.0432 57.1836 39.4586 57.6004 39.971 57.6004C40.4834 57.6004 40.8988 57.1836 40.8988 56.6695C40.9745 55.3709 41.8261 54.2474 43.0531 53.8274C43.5399 53.6634 43.802 53.1345 43.6385 52.6461C43.475 52.1577 42.9479 51.8947 42.4611 52.0587V52.0624Z" fill="white"/>
<path d="M55.5178 51.056C55.5915 51.0748 55.6673 51.0842 55.7433 51.084C56.1685 51.0835 56.539 50.7931 56.6423 50.3793C57.0693 48.6409 58.603 47.4044 60.3868 47.3603C60.8992 47.359 61.3135 46.9412 61.3123 46.4271C61.311 45.913 60.8946 45.4972 60.3822 45.4985C57.7451 45.5336 55.4663 47.3556 54.8433 49.9268C54.7188 50.4255 55.0208 50.9311 55.5178 51.056Z" fill="white"/>
<defs>
<linearGradient id="paint0_linear" x1="2.28194" y1="10.0823" x2="104.079" y2="11.9505" gradientUnits="userSpaceOnUse">
<stop stop-color="#255D8B"/>
<stop offset="1" stop-color="#3A80BA"/>
</linearGradient>
</defs>
</svg>
